symbolic/24x24/apps/com.github.amikha1lov.RecApp.svg

<svg xmlns="http://www.w3.org/2000/svg" width="24" height="24"><rect style="opacity:.2" width="20" height="20" x="2" y="2.5" rx="4" ry="4"/><rect style="fill:#e4e4e4" width="20" height="20" x="2" y="2" rx="4" ry="4"/><circle style="opacity:.2" cx="12" cy="12.5" r="4"/><circle style="fill:#666" cx="12" cy="12" r="4"/><circle style="fill:#e33838;stroke:#f9f9f9" cx="12" cy="12" r="2.5"/><path style="opacity:.2;fill:#fff" d="M6 2C3.784 2 2 3.784 2 6v.5c0-2.216 1.784-4 4-4h12c2.216 0 4 1.784 4 4V6c0-2.216-1.784-4-4-4z"/><path style="opacity:.1" d="M5.5 4.5C4.678 4.5 4 5.178 4 6v1.5h1V6c0-.286.214-.5.5-.5H7v-1zm4.5 0v1h3v-1zm6 0v1h2.5c.286 0 .5.214.5.5v1.5h1V6c0-.822-.678-1.5-1.5-1.5zm-12 6v3h1v-3zm15 0v3h1v-3zm-15 6V19c0 .822.678 1.5 1.5 1.5H7v-1H5.5A.488.488 0 0 1 5 19v-2.5zm15 0V19c0 .286-.214.5-.5.5H16v1h2.5c.822 0 1.5-.678 1.5-1.5v-2.5zm-9 3v1h3v-1z"/><path style="fill:#e33838" d="M5.5 4C4.678 4 4 4.678 4 5.5V7h1V5.5c0-.286.214-.5.5-.5H7V4H5.5zM10 4v1h3V4h-3zm6 0v1h2.5c.286 0 .5.214.5.5V7h1V5.5c0-.822-.678-1.5-1.5-1.5H16zM4 10v3h1v-3H4zm15 0v3h1v-3h-1zM4 16v2.5c0 .822.678 1.5 1.5 1.5H7v-1H5.5a.488.488 0 0 1-.5-.5V16H4zm15 0v2.5c0 .286-.214.5-.5.5H16v1h2.5c.822 0 1.5-.678 1.5-1.5V16h-1zm-9 3v1h3v-1h-3z"/></svg>

<svg xmlns="http://www.w3.org/2000/svg" width="24" height="24" version="1.1">
 <rect style="opacity:0.2" width="20" height="20" x="2" y="2.5" rx="4" ry="4"/>
 <rect style="fill:#e4e4e4" width="20" height="20" x="2" y="2" rx="4" ry="4"/>
 <circle style="opacity:0.2" cx="12" cy="12.5" r="4"/>
 <circle style="fill:#666666" cx="12" cy="12" r="4"/>
 <circle style="fill:#e33838;stroke:#f9f9f9" cx="12" cy="12" r="2.5"/>
 <path style="opacity:0.2;fill:#ffffff" d="M 6,2 C 3.784,2 2,3.784 2,6 V 6.5 C 2,4.284 3.784,2.5 6,2.5 H 18 C 20.216,2.5 22,4.284 22,6.5 V 6 C 22,3.784 20.216,2 18,2 Z"/>
 <path style="opacity:0.1" d="M 5.5,4.5 C 4.6776,4.5 4,5.1776 4,6 V 7.5 H 5 V 6 C 5,5.7144 5.2144,5.5 5.5,5.5 H 7 V 4.5 Z M 10,4.5 V 5.5 H 13 V 4.5 Z M 16,4.5 V 5.5 H 18.5 C 18.786,5.5 19,5.7144 19,6 V 7.5 H 20 V 6 C 20,5.1776 19.322,4.5 18.5,4.5 Z M 4,10.5 V 13.5 H 5 V 10.5 Z M 19,10.5 V 13.5 H 20 V 10.5 Z M 4,16.5 V 19 C 4,19.822 4.6776,20.5 5.5,20.5 H 7 V 19.5 H 5.5 C 5.2144,19.5 5,19.286 5,19 V 16.5 Z M 19,16.5 V 19 C 19,19.286 18.786,19.5 18.5,19.5 H 16 V 20.5 H 18.5 C 19.322,20.5 20,19.822 20,19 V 16.5 Z M 10,19.5 V 20.5 H 13 V 19.5 Z"/>
 <path style="fill:#e33838" d="M 5.5 4 C 4.6776 4 4 4.6776 4 5.5 L 4 7 L 5 7 L 5 5.5 C 5 5.2144 5.2144 5 5.5 5 L 7 5 L 7 4 L 5.5 4 z M 10 4 L 10 5 L 13 5 L 13 4 L 10 4 z M 16 4 L 16 5 L 18.5 5 C 18.786 5 19 5.2144 19 5.5 L 19 7 L 20 7 L 20 5.5 C 20 4.6776 19.322 4 18.5 4 L 16 4 z M 4 10 L 4 13 L 5 13 L 5 10 L 4 10 z M 19 10 L 19 13 L 20 13 L 20 10 L 19 10 z M 4 16 L 4 18.5 C 4 19.322 4.6776 20 5.5 20 L 7 20 L 7 19 L 5.5 19 C 5.2144 19 5 18.786 5 18.5 L 5 16 L 4 16 z M 19 16 L 19 18.5 C 19 18.786 18.786 19 18.5 19 L 16 19 L 16 20 L 18.5 20 C 19.322 20 20 19.322 20 18.5 L 20 16 L 19 16 z M 10 19 L 10 20 L 13 20 L 13 19 L 10 19 z"/>
</svg>
